X:1
T:Title
%%score { ( 1 4 ) | ( 2 3 ) }
L:1/8
M:4/4
K:A
V:1 treble nm="Grand Piano"
V:4 treble 
V:2 bass 
V:3 bass 
V:1
 z4 z2[Q:1/4=108] [CE]2 | [CA]3 [Ec] [DB]2 [CA]2 | [DF]2 [CE]4 [EA]2 | B2 B2 c2 c2 |[M:3/4] B6 | %5
[M:1/4] [Ec]2 |[M:4/4] [CEA]3 [DEB] [CEA]2 [CE]2 | [DF]2 [CA]4 [CE]2 | E3 A c2 B2 |[M:3/4] [CA]6 | %10
[M:1/4] c2 |[M:4/4] e3 e fe c2 | B2 A4 c2 | e3 e c2 [EA]2 |[M:3/4] [EB]6 |[M:1/4] [Ec]2 | %16
[M:4/4] [CEA]3 [DEB] [CEA]2 [A,CE]2 | [A,DF]2 [A,CA]4 [A,CE]2 | [CE]3 [DF] [A,EA]2 z2 | %19
 [Ec]4 [DEB]4 |[M:3/4] [CEA]6 |[M:1/4] [Ec]2 |[M:4/4] [CEA]3 [DEB] [CEA]2 [A,CE]2 | %23
 [A,DF]2 [FA][DF] [CE]2 [EA]2 | B3 B B2 A2 |[M:7/8] c2 c2 B3 |[M:1/4] c2 |[M:4/4] e3 e fe c2 | %28
 BA F2 [FA]2 [DF]2 | [CE]3 [DF] [CE]F [EA]2 | [Ec]4 [DB]4 |[M:7/4] [CA]6 z2 z2 z4 |[M:4/4] [DA]8 | %33
 [CA]8 |] %34
V:2
 z4 z2 [A,,A,]2 | [A,,A,]3 [A,,A,] [A,,A,]2 [A,,A,]2 | [A,,A,]2 [A,,A,]4 [C,A,]2 | %3
 [G,E]2 [E,G,E]2 [E,A,E]2 [E,A,E]2 |[M:3/4] [E,G,E]6 |[M:1/4] [A,,A,]2 | %6
[M:4/4] A,,3 A,, A,,2 [A,,A,]2 | [A,,A,]2 [A,,A,]4 [A,,A,]2 | [E,A,C]3 [E,A,C] [E,A,E]2 [E,G,D]2 | %9
[M:3/4] [A,,A,]6 |[M:1/4][K:treble] [A,E]2 |[M:4/4] z4 [A,A]2 z2 | [A,DE]2 [A,CE]4 [A,E]2 | %13
 [A,CA]3 [A,CA][K:bass] [A,E]2 [C,A,]2 |[M:3/4] [E,G,]6 |[M:1/4] [A,,A,]2 | %16
[M:4/4] A,,3 A,, A,,2 A,,2 | A,,2 A,,4 A,,2 | A,,3 D, C,2 z2 | E,4 E,4 |[M:3/4] A,,6 | %21
[M:1/4] [A,,A,]2 |[M:4/4] A,,3 A,, A,,2 A,,2 | D,2 [D,A,]2 [A,,A,]2 [C,A,]2 | %24
 [E,G,E]3 [E,G,E] [E,G,E]2 [E,A,C]2 |[M:7/8] [E,A,E]2 [E,A,E]2 [E,G,E]3 |[M:1/4][K:treble] [A,E]2 | %27
[M:4/4] z4 [A,A]2[K:bass] z2 | [D,A,]2 [D,A,D]2 [D,A,]2 [D,A,]2 | z4 A,2 z2 | [E,A,]4 [E,G,]4 | %31
[M:7/4] [A,,A,]6 z2 z2 z4 |[M:4/4] [D,F,]8 | [A,,E,]8 |] %34
V:3
 x8 | x8 | x8 | x8 |[M:3/4] x6 |[M:1/4] x2 |[M:4/4] x8 | x8 | x8 |[M:3/4] x6 | %10
[M:1/4][K:treble] x2 |[M:4/4] [A,CA]3 [A,CA] DC [A,E]2 | x8 | x4[K:bass] x4 |[M:3/4] x6 | %15
[M:1/4] x2 |[M:4/4] x8 | x8 | x8 | x8 |[M:3/4] x6 |[M:1/4] x2 |[M:4/4] x8 | x8 | x8 |[M:7/8] x7 | %26
[M:1/4][K:treble] x2 |[M:4/4] [A,CA]3 [A,CA] DC[K:bass] [A,E]2 | x8 | %29
 [A,,A,]3 [A,,A,] A,,[D,D] [C,A,]2 | x8 |[M:7/4] x14 |[M:4/4] x8 | x8 |] %34
V:4
 x8 | x8 | x8 | x8 |[M:3/4] x6 |[M:1/4] x2 |[M:4/4] x8 | x8 | x8 |[M:3/4] x6 |[M:1/4] x2 | %11
[M:4/4] x8 | x8 | x8 |[M:3/4] x6 |[M:1/4] x2 |[M:4/4] x8 | x8 | A,4 z4 | x8 |[M:3/4] x6 | %21
[M:1/4] x2 |[M:4/4] x8 | x8 | x8 |[M:7/8] x7 |[M:1/4] x2 |[M:4/4] x8 | F2 z2 z4 | x8 | x8 | %31
[M:7/4] x14 |[M:4/4] x8 | x8 |] %34

